X: 32300
T: Pigeon On The Gate, The
R: reel
M: 4/4
K: Edorian
dc|:BE ~E2 B,E~E2|BE ~E2 dBAF|D2 (3FED ADFE|DEFA BAFA|
BE ~E2 B,E~E2|BE ~E2 dBAF|DEFA defe|dBAF EFGA:|
~B2 ed efed|(3Bcd ef gfed|BABc dedB|ABde fded|
~B2 ed efed|(3Bcd ef g2 fg|af (3gfe fdec|dBAF EFGA:|

